X:1
T:Thou Didst Leave Thy Throne
T:Thou Didst Leave Thy Throne
T:Timothy Richard Matthews, 1876
T:Emily Elizabeth Steele Elliott, 1864
T:Public Domain Courtesy of the Cyber Hymnal™
T:Public Domain Courtesy of the Cyber Hymnal™
C:Timothy Richard Matthews, 1876
Z:Public Domain
Z:Courtesy of the Cyber Hymnal™
%%score ( 1 2 ) ( 3 4 )
L:1/8
Q:1/4=110
M:4/4
K:D
V:1 treble 
V:2 treble 
V:3 bass 
V:4 bass 
V:1
 (D[DE]) | [DF]2 ([DF][DF]) [B,G]2 [CF][CE] | D2 [B,E]2 [CF]2 ([DF][D^G]) | %3
w: 1.~Thou~didst *|leave Thy * throne and Thy|king- ly crown, When~Thou *|
w: 2.~Heaven’s *|arch- es * rang when the|an- gels sang, Pro- *|
w: 3.~The *|fox- es~found * rest, and the|birds their nest In~the *|
w: 4.~Thou *|cam- est,~O * Lord, with the|liv- ing Word, That~should *|
w: 5.~When *|the heavens * shall ring, and~the|an- gels sing, At~Thy *|
 [CA]2 ([EA][EA]) [DF]2 (DD) | [CE]6 [CE][CE] | [DF]2 (FF) [F^G]2 [^EG][EG] | %6
w: cam- est~to * earth for *|me; But in|Beth- lehem’s * home was there|
w: claim- ing~Thy * roy- al~de- *|gree; But of|low- ly * birth didst Thou|
w: shade of~the * for- est *|tree; But Thy|couch was~the * sod, O Thou|
w: set Thy * peo- ple *|free; But with|mock- ing * scorn and with|
w: com- ing~to * vic- to- *|ry, Let Thy|voice call~me * home, say- ing|
 [CA]2 ([DA][DA]) [DB]2 ([DB][DB]) | [Cc]2 ([EA][EA]) B3 (z c) | [CA]6 ||"^Refrain" [CA]2 | %10
w: found no * room For~Thy *|ho- ly~na- * ti- *|vi-|ty.|
w: come to * earth, And~in *|great hu- * mil- *|i-|ty.|
w: Son of * God, In~the *|de- serts~of * Gal- *|i-|lee.|
w: crown of * thorn, They *|bore Thee~to * Cal- *|va-|ry.|
w: “Yet there~is * room, There~is *|room at~My * side *|for|thee.”|
 [DA]2 [DF][CG] [DA]2 [Fd]2 | [Gd]4 [Gc]2 [EB][EB] | [FA]2 D[DE] [DF]2 ([CE][CE]) | D6 |] %14
w: ||||
w: 1,2,3,4~O come to my heart,|Lord Je- sus, There|is room in my heart *|for|
w: 5.~My heart shall re- joice,|Lord Je- sus, When|Thou com- est and callest *|for|
w: ||||
w: ||||
V:2
 D x | x8 | D2 x6 | x6 DD | x8 | x8 | x8 | x4 E2 D2 x | x6 || x2 | x8 | x8 | x2 D x5 | D6 |] %14
V:3
 [D,F,][D,G,] | [D,A,]2 ([B,,B,][B,,B,]) [E,G,]2 [A,,A,][A,,G,] | %2
 [B,,F,]2 [G,,B,]2 [F,,^A,]2 [B,,B,][B,,B,] | [A,,E,]2 [C,A,][C,A,] [D,A,]2 ([F,A,][F,A,]) | %4
 A,6 [A,,A,][A,,A,] | [D,A,]2 [D,A,][D,A,] [C,B,]2 [C,B,][C,B,] | %6
 [F,A,]2 ([=F,A,][F,A,]) [E,A,]2 [E,^G,][E,G,] | [A,,A,]2 [C,A,][C,A,] [E,A,]2 [E,^G,]2 x | %8
 [A,,A,]6 || [A,,G,]2 | [D,F,]2 [D,A,][E,A,] [F,A,]2 [D,A,]2 | [E,A,]4 [E,A,]2 [G,C][G,C] | %12
 [F,D]2 [B,,^G,][B,,G,] [A,,A,]2 ([A,,A,][A,,=G,]) | [D,F,]6 |] %14
V:4
 x2 | x8 | x8 | x8 | A,6 x2 | x8 | x8 | x9 | x6 || x2 | x8 | x8 | x8 | x6 |] %14

